X: 42002
T: Walsh's
R: hornpipe
M: 4/4
K: Amajor
cB|:"A"(3ABc EF Ac e2|"D"(3def Bc de f2|"A"~fe ce ae cA|"Bm"(3Bcd cA "E"BA F2|
"A"(3ABc EF Ac e2|"D"(3def Bc de f2|"A"~fe ce ae cA|1 "Bm"(3Bcd "E"cB "A"A2 cB:|2 "Bm"(3Bcd "E"cB "A"A2 (3efg||
|:"A"~ae ce fe ce|~ae ce fe ce|AB ce fe cA|"Bm"(3Bcd "E"cA BA F2|
"A"(3ABc EF Ac e2|"D"(3def Bc de f2|"A"~fe ce ae cA|1 "Bm"(3Bcd "E"cB "A"A2(3efg:|2 "Bm"(3Bcd "E"cB "A"A2 cB||

